svg/200/rounded/density_medium-fill.svg

<svg xmlns="http://www.w3.org/2000/svg" width="48" height="48" viewBox="0 -960 960 960"><path d="M175.384-160q-6.538 0-10.961-4.485T160-175.6q0-6.631 4.423-10.9t10.961-4.269h609.232q6.538 0 10.961 4.485T800-175.169q0 6.631-4.423 10.9T784.616-160H175.384Zm0-304.615q-6.538 0-10.961-4.485Q160-473.586 160-480.216t4.423-10.899q4.423-4.27 10.961-4.27h609.232q6.538 0 10.961 4.485Q800-486.414 800-479.784t-4.423 10.899q-4.423 4.27-10.961 4.27H175.384Zm0-304.616q-6.538 0-10.961-4.485T160-784.831q0-6.631 4.423-10.9T175.384-800h609.232q6.538 0 10.961 4.485T800-784.4q0 6.631-4.423 10.9t-10.961 4.269H175.384Z"/></svg>

<svg xmlns="http://www.w3.org/2000/svg" width="48" height="48" viewBox="0 -960 960 960"><path d="M175.38-160q-6.53 0-10.96-4.48-4.42-4.49-4.42-11.12 0-6.63 4.42-10.9 4.43-4.27 10.96-4.27h609.24q6.53 0 10.96 4.49 4.42 4.48 4.42 11.11 0 6.63-4.42 10.9-4.43 4.27-10.96 4.27H175.38Zm0-304.62q-6.53 0-10.96-4.48-4.42-4.49-4.42-11.12 0-6.63 4.42-10.9 4.43-4.26 10.96-4.26h609.24q6.53 0 10.96 4.48 4.42 4.49 4.42 11.12 0 6.63-4.42 10.9-4.43 4.26-10.96 4.26H175.38Zm0-304.61q-6.53 0-10.96-4.49-4.42-4.48-4.42-11.11 0-6.63 4.42-10.9 4.43-4.27 10.96-4.27h609.24q6.53 0 10.96 4.48 4.42 4.49 4.42 11.12 0 6.63-4.42 10.9-4.43 4.27-10.96 4.27H175.38Z"/></svg>
